ukui-icon-theme-default/scalable/actions/stock_shared-to-me.svg

<?xml version="1.0" encoding="iso-8859-1"?>
<!-- Generator: Adobe Illustrator 24.0.0, SVG Export Plug-In . SVG Version: 6.00 Build 0)  -->
<svg version="1.1" id="s" xmlns="http://www.w3.org/2000/svg" xmlns:xlink="http://www.w3.org/1999/xlink" x="0px" y="0px"
	 viewBox="0 0 16 16" style="enable-background:new 0 0 16 16;" xml:space="preserve">
<title>16</title>
<g id="_16">
	<path style="fill:#808080;" d="M10,2c0.552,0,1,0.448,1,1v2c0,0.552-0.448,1-1,1H6C5.448,6,5,5.552,5,5V3c0-0.552,0.448-1,1-1H10
		 M10,1H6C4.895,1,4,1.895,4,3v2c0,1.105,0.895,2,2,2h4c1.105,0,2-0.895,2-2V3C12,1.895,11.105,1,10,1z"/>
	<path style="fill:#808080;" d="M6,12v2H2v-2H6 M6,11H2c-0.552,0-1,0.448-1,1v2c0,0.552,0.448,1,1,1h4c0.552,0,1-0.448,1-1v-2
		C7,11.448,6.552,11,6,11z"/>
	<path style="fill:#808080;" d="M14,12v2h-4v-2H14 M14,11h-4c-0.552,0-1,0.448-1,1v2c0,0.552,0.448,1,1,1h4c0.552,0,1-0.448,1-1v-2
		C15,11.448,14.552,11,14,11z"/>
	<polygon style="fill:#61A232;" points="2.5,9 4.5,7 6.5,9 	"/>
	<line style="fill:none;stroke:#61A232;stroke-miterlimit:10;" x1="4.5" y1="9" x2="4.5" y2="11"/>
	<polygon style="fill:#61A232;" points="9.5,9 11.5,7 13.5,9 	"/>
	<line style="fill:none;stroke:#61A232;stroke-miterlimit:10;" x1="11.5" y1="9" x2="11.5" y2="11"/>
</g>
</svg>

<svg id="s" xmlns="http://www.w3.org/2000/svg" viewBox="0 0 16 16"><defs><style>.cls-1{fill:gray;}.cls-2{fill:#61a232;}.cls-3{fill:none;stroke:#61a232;stroke-miterlimit:10;}</style></defs><title>16</title><g id="_16" data-name="16"><path class="cls-1" d="M10,2a1,1,0,0,1,1,1V5a1,1,0,0,1-1,1H6A1,1,0,0,1,5,5V3A1,1,0,0,1,6,2h4m0-1H6A2,2,0,0,0,4,3V5A2,2,0,0,0,6,7h4a2,2,0,0,0,2-2V3a2,2,0,0,0-2-2Z"/><path class="cls-1" d="M6,12v2H2V12H6m0-1H2a1,1,0,0,0-1,1v2a1,1,0,0,0,1,1H6a1,1,0,0,0,1-1V12a1,1,0,0,0-1-1Z"/><path class="cls-1" d="M14,12v2H10V12h4m0-1H10a1,1,0,0,0-1,1v2a1,1,0,0,0,1,1h4a1,1,0,0,0,1-1V12a1,1,0,0,0-1-1Z"/><polygon class="cls-2" points="2.5 9 4.5 7 6.5 9 2.5 9"/><line class="cls-3" x1="4.5" y1="9" x2="4.5" y2="11"/><polygon class="cls-2" points="9.5 9 11.5 7 13.5 9 9.5 9"/><line class="cls-3" x1="11.5" y1="9" x2="11.5" y2="11"/></g></svg>
